!!!OTL: "Reiterlied" AUF ZU ROSS UND FORTGERITTEN
!!!ARE: Europa, Mitteleuropa, Deutschland, Rhein
!!!SCT: Z1139
!!!YEM: Copyright 1995, estate of Helmut Schaffrath.
**kern
*ICvox
*Ivox
*M4/4
*k[b-e-]
*B-:
{8.f
16f
=1
4.b-
8b-
4.f
8f
=2
4d
8f
8d
4B-}
{8b-
8b-
=3
4cc
4dd
4cc
4dd
=4
8cc
8ff
8een
8dd
4cc}
{8cc
8b-
=5
4a
4a
4cc
4cc
=6
2f
4r}
{8cc
8dd
=7
4.ee-
8cc
4ee-
4dd
=8
4dd
4cc
4r}
{8dd
8cc
=9
4b-
4b-
4cc
4cc
=10
4.ff
8dd
4b-}
{8b-
8a
=11
8g
8ee-
8dd
8cc
4dd
4cc
=12
2b-
4r}
==
!!!AGN: Vaterland und Wehr
!!!ONB: ESAC (Essen Associative Code) Database: ZUCCAL
!!!AMT: simple quadruple
!!!AIN: vox
!!!EED: Helmut Schaffrath
!!!EEV: 1.0
*-
